!!!OTL: "Vorwurf" ACH ARMES HERZ VERZAGE NICHT
!!!ARE: Europa, Mitteleuropa, Deutschland, Niederrhein
!!!SCT: Z1162
!!!YEM: Copyright 1995, estate of Helmut Schaffrath.
**kern
*ICvox
*Ivox
*M4/4
*k[f#]
*G:
{4d
=1
4g
8g
8a
8b
8a
8b
8cc
=2
4dd
8dd
8cc
4b}
{8b
8cc
=3
8dd
8cc
8cc
8b
4a}
{4dd
=4
8b
8dd
8dd
8dd
4dd
8ee
8dd
=5
8dd
8cc
8cc
8cc
4cc}
{8dd
8cc
=6
4b
8a
8b
4dd
8cc
8b
=7
8b
8a
8a
8a
4a}
==
!!!AGN: Liebes - Lied, verlassene Liebe
!!!ONB: ESAC (Essen Associative Code) Database: ZUCCAL
!!!AMT: simple quadruple
!!!AIN: vox
!!!EED: Helmut Schaffrath
!!!EEV: 1.0
*-
